SVG/thumbs-o-up.svg

<?xml version="1.0" encoding="utf-8"?>
<!-- Generated by IcoMoon.io -->
<!DOCTYPE svg PUBLIC "-//W3C//DTD SVG 1.1//EN" "http://www.w3.org/Graphics/SVG/1.1/DTD/svg11.dtd">
<svg version="1.1" xmlns="http://www.w3.org/2000/svg" xmlns:xlink="http://www.w3.org/1999/xlink" width="12" height="14" viewBox="0 0 12 14">
<path fill="#444444" d="M2 10.5q0-0.203-0.148-0.352t-0.352-0.148-0.352 0.148-0.148 0.352 0.148 0.352 0.352 0.148 0.352-0.148 0.148-0.352zM11 6q0-0.398-0.305-0.699t-0.695-0.301h-2.75q0-0.453 0.375-1.246t0.375-1.254q0-0.766-0.25-1.133t-1-0.367q-0.203 0.203-0.297 0.664t-0.238 0.98-0.465 0.855q-0.172 0.18-0.602 0.711-0.031 0.039-0.18 0.234t-0.246 0.32-0.27 0.332-0.312 0.344-0.301 0.277-0.312 0.211-0.277 0.070h-0.25v5h0.25q0.102 0 0.246 0.023t0.258 0.051 0.297 0.086 0.273 0.090 0.277 0.098 0.227 0.082q1.648 0.57 2.672 0.57h0.945q1.5 0 1.5-1.305 0-0.203-0.039-0.438 0.234-0.125 0.371-0.41t0.137-0.574-0.141-0.539q0.414-0.391 0.414-0.93 0-0.195-0.078-0.434t-0.195-0.371q0.25-0.008 0.418-0.367t0.168-0.633zM12 5.992q0 0.695-0.383 1.273 0.070 0.258 0.070 0.539 0 0.602-0.297 1.125 0.023 0.164 0.023 0.336 0 0.789-0.469 1.391 0.008 1.086-0.664 1.715t-1.773 0.629h-1.008q-0.75 0-1.48-0.176t-1.691-0.512q-0.906-0.312-1.078-0.312h-2.25q-0.414 0-0.707-0.293t-0.293-0.707v-5q0-0.414 0.293-0.707t0.707-0.293h2.141q0.281-0.187 1.070-1.211 0.453-0.586 0.836-1 0.187-0.195 0.277-0.668t0.238-0.988 0.484-0.844q0.305-0.289 0.703-0.289 0.656 0 1.18 0.254t0.797 0.793 0.273 1.453q0 0.727-0.375 1.5h1.375q0.813 0 1.406 0.594t0.594 1.398z"></path>
</svg>

<svg xmlns="http://www.w3.org/2000/svg" viewBox="0 0 12 14"><path d="M2 10.5q0-.203-.148-.352T1.5 10t-.352.148T1 10.5t.148.352T1.5 11t.352-.148T2 10.5zM11 6q0-.398-.305-.7T10 5H7.25q0-.453.375-1.246T8 2.5q0-.766-.25-1.133T6.75 1q-.203.203-.297.664t-.238.98-.465.855q-.172.18-.602.71l-.18.23-.246.32-.27.33-.312.34-.3.272-.313.21-.277.07H3v5h.25q.102 0 .246.024t.258.052.297.084.28.09.28.1.23.08q1.65.57 2.676.57h.945q1.5 0 1.5-1.304 0-.2-.04-.436.236-.123.373-.41t.137-.57-.14-.54q.41-.39.41-.93 0-.196-.08-.435t-.2-.367q.25-.01.42-.37t.163-.63zm1-.008q0 .695-.383 1.273.07.258.07.54 0 .6-.297 1.124.023.16.023.33 0 .79-.47 1.39.01 1.08-.663 1.71T8.507 13H7.5q-.75 0-1.48-.176t-1.692-.512Q3.422 12 3.25 12H1q-.414 0-.707-.293T0 11V6q0-.414.293-.707T1 5h2.14q.282-.187 1.07-1.21.454-.587.837-1 .187-.196.277-.67t.238-.987.484-.844Q6.35 0 6.75 0q.655 0 1.18.254t.796.793T9 2.5q0 .727-.376 1.5H10q.812 0 1.405.594T12 5.992z" /></svg>
